X:1
T:Buckland, 77.77
T:Leighton George Hayne, 1863
T:Buckland, 77.77
T:Public Domain
C:Leighton George Hayne, 1863
Z:Public Domain
%%score ( 1 2 ) ( 3 4 )
L:1/8
M:4/4
K:D
V:1 treble 
V:2 treble 
V:3 bass 
V:4 bass 
V:1
 [FA]2 [DF]2 [CE]2 D2 | [DE]2 [CE]2 [DF]4 | [DA]2 [Dd]2 [Ec]2 [FA]2 | [EA]2 [E^G]2 [EA]4 | %4
 [Fd]2 [EA]2 [DG]2 [DF]2 | [B,E]2 [^DF]2 [EG]4 | [DG]2 [EA]2 [DF]2 D2 | [B,D]2 [A,C]2 [A,D]4 |] %8
V:2
 x6 D2 | x8 | x8 | x8 | x8 | x8 | x6 D2 | x8 |] %8
V:3
 [D,A,]2 [D,A,]2 [A,,G,]2 [B,,F,]2 | [G,,B,]2 [A,,A,]2 [D,A,]4 | [D,F,]2 [B,,^G,]2 [C,A,]2 [D,D]2 | %3
 [E,C]2 [E,B,]2 [A,C]4 | [D,A,]2 (E,F,) [B,,G,]2 [A,,A,]2 | [G,,B,]2 [B,,B,]2 [E,B,]4 | %6
 [B,,B,]2 [C,A,]2 [D,A,]2 [F,,A,]2 | [G,,G,]2 [A,,E,]2 [D,F,]4 |] %8
V:4
 x8 | x8 | x8 | x8 | x2 C,2 x4 | x8 | x8 | x8 |] %8

